X:160
M:4/4
L:1/4
K:Bb
B2 A G | F E/D/ G G | F2 B2 | A G F E/D/ | G G F F | G A (B d) | c (B2 A) | B4 | B2 A G | F E/D/ G G | F2 B2 | A G F E/D/ | G G F F | G A (B d) | c (B2 A) | B3 B | B c B G | B B A A | B c B G | B B A2 | B d/ d/ c/ B/ B/ A/ | B A B2- | B A G F | F =E F2 | z2 d2 | c2 B2 | A d e c | B c B A | B3/2 !sintro!B/ B B | c B B A | B4 !eintro!|]
